X: 82
T: Les desl\'eaulx
N: Derived from Ock3010-Les_desleaulx.krn
C: Johannes Ockeghem
%%abc-version 2.0
%%abcx-abcm2ps-target-version 5.9.1 (29 Sep 2008)
%%abc-creator hum2abc beta
%%abcx-conversion-date 2019/02/17 07:26:16
%%abc-edited-by Jesse Rodin
%%abc-edited-by Chris Gage 06-25-2012
%%abcx-initial-encoding-date 2012/08/16/
%%humdrum-veritas 1099275538
%%humdrum-veritas-data 2299888314
%%linebreak <none>
%%barnumbers 0
L: 1/4
M: 4/2
Q: 1/2=120
V: 1 clef=treble
V: 2 clef=treble-8
V: 3 clef=bass
K: C
[V:1] D4C2D2 | 
[V:2] D4F2D2 | 
[V:3] A,8 | 
[V:1] B,2C2D2F2 | 
[V:2] E4D4 | 
[V:3] z2A,,2B,,2C,D, | 
[V:1] E2A3GE2 | 
[V:2] A3Bc4 | 
[V:3] A,,4A,4 | 
[V:1] F2D2G3F | 
[V:2] d4B2G2 | 
[V:3] D,4z2C,2- | 
[V:1] EDD4^C2 | 
[V:2] A2F2E4 | 
[V:3] C,2D,2A,,4 | 
[V:1] D4z2D2 | 
[V:2] D8 | 
[V:3] z2A,2B,2B,2 | 
[V:1] E2E2F2F2 | 
[V:2] z2C2D2D2 | 
[V:3] C2C2A,4 | 
[V:1] E2C4D2 | 
[V:2] E2E2F2F2 | 
[V:3] z2G,2A,2A,2 | 
[V:1] E3F/G/A3G/A/ | 
[V:2] E2C4D2 | 
[V:3] B,2CDE2D2 | 
[V:1] G2E2F2D2 | 
[V:2] E4D4 | 
[V:3] z2C2D4 | 
[V:1] C2D2F3E | 
[V:2] A2B2A4- | 
[V:3] z4C4- | 
[V:1] F2E4D2 | 
[V:2] A2G2F4 | 
[V:3] C2B,2A,4 | 
[V:1] !fermata!E8 | 
[V:2] !fermata!E4c4 | 
[V:3] !fermata!G,4A,4 | 
[V:1] z4F4 | 
[V:2] B2B2A2d2- | 
[V:3] E,4z2D,2 | 
[V:1] E2E2D2F2 | 
[V:2] dBc2d3B | 
[V:3] A,4D,4 | 
[V:1] E2C2D2F2 | 
[V:2] c3AB2A2 | 
[V:3] z2A,,2D,4 | 
[V:1] E2A4G2 | 
[V:2] c2A2B4 | 
[V:3] A,4E,4 | 
[V:1] A3FG2E2 | 
[V:2] z2f2e2c2 | 
[V:3] D,4z2A,,2 | 
[V:1] D2F2E2G2- | 
[V:2] d3cA2G2 | 
[V:3] D,4z4 | 
[V:1] GFEDF2E2 | 
[V:2] _B4A3G | 
[V:3] G,,4A,,4- | 
[V:1] z2C2D2CD | 
[V:2] FDE2z2B2 | 
[V:3] A,,4D,4 | 
[V:1] E2DEF2D2 | 
[V:2] c2Bcd2f2 | 
[V:3] A,4z2_B,2- | 
[V:1] z2C2D2B,2 | 
[V:2] e4f3d | 
[V:3] B,G,A,2D,4 | 
[V:1] C2B,CD2F2 | 
[V:2] e4z2A2- | 
[V:3] z2E,2F,2D,2 | 
[V:1] E2C2D2CD | 
[V:2] AGE2F2ED | 
[V:3] C,4z2A,2- | 
[V:1] E2A,2B,2C2 | 
[V:2] C4z2A2 | 
[V:3] A,G,E,2G,2F,2 | 
[V:1] D2F2E2A2- | 
[V:2] B2ABc3A | 
[V:3] D,4C,4 | 
[V:1] AGE2F2D2 | 
[V:2] B2c2d2G2 | 
[V:3] D,2E,2D,2B,,2 | 
[V:1] C4G3F | 
[V:2] A3G/F/E2C2 | 
[V:3] A,,2C,3D,E,2 | 
[V:1] EDD4^C2 | 
[V:2] F2D2E4 | 
[V:3] A,,2_B,,2A,,4 | 
[V:1] D8 |]  
[V:2] D8 |]  
[V:3] A,8 |]  



